icon/gr/restaurant.svg

<svg xmlns="http://www.w3.org/2000/svg" viewBox="0 0 24 24" height="1em" width="1em">
  <path fill="none" stroke="#000" stroke-width="2" d="M19,18 L5,18 L19,18 Z M12,18 L12,12 L12,18 Z M15,18 L15,14 L15,18 Z M9,18 L9,14 L9,18 Z M19,22 L19,11.3292943 C20.1651924,10.9174579 21,9.80621883 21,8.5 C21,6.84314575 19.6568542,5.5 18,5.5 C17.6192862,5.5 17.2551359,5.57091725 16.9200387,5.7002623 C16.5495238,3.87433936 14.4600194,2 12,2 C9.53998063,2 7.45047616,3.87433936 7.07996126,5.7002623 C6.74486408,5.57091725 6.38071384,5.5 6,5.5 C4.34314575,5.5 3,6.84314575 3,8.5 C3,9.80621883 3.83480763,10.9174579 5,11.3292943 L5,22 L19,22 Z"/>
</svg>

<svg xmlns="http://www.w3.org/2000/svg" width="24" height="24"><path fill="none" stroke="#000" stroke-width="2" d="M19 18H5h14Zm-7 0v-6 6Zm3 0v-4 4Zm-6 0v-4 4Zm10 4V11.33a3.001 3.001 0 1 0-2.08-5.63C16.55 3.874 14.46 2 12 2S7.45 3.874 7.08 5.7A3 3 0 1 0 5 11.33V22h14Z"/></svg>
